img/union-7.svg

<svg fill="none" height="29" viewBox="0 0 30 29" width="30" xmlns="http://www.w3.org/2000/svg"><path d="m1.26074 14.5823h.36826zm0 13.994h-.368259v.3682h.368259zm13.99396 0v-.3683zm0-27.61963c7.5252 0 13.6256 6.10042 13.6256 13.62563h.7366c0-7.93198-6.4302-14.362153-14.3622-14.362152zm-13.6257 13.62563c0-7.52521 6.10042-13.62563 13.6257-13.62563v-.736522c-7.93205 0-14.36222 6.430172-14.36222 14.362152zm0 13.994v-13.994h-.73652l.000001 13.994zm13.6257-.3683h-13.99396v.7365h13.99396zm13.6256-13.6257c0 7.5253-6.1004 13.6257-13.6256 13.6257v.7365c7.932 0 14.3622-6.4301 14.3622-14.3622z" fill="#5b57ca"/></svg>

<svg width="30" height="29" viewBox="0 0 30 29" fill="none" xmlns="http://www.w3.org/2000/svg">
<path d="M1.26074 14.5823L1.629 14.5823L1.26074 14.5823ZM1.26074 28.5763L0.892481 28.5763L0.892481 28.9445L1.26074 28.9445L1.26074 28.5763ZM15.2547 28.5763L15.2547 28.208L15.2547 28.5763ZM15.2547 0.95667C22.7799 0.95667 28.8803 7.05709 28.8803 14.5823L29.6169 14.5823C29.6169 6.65032 23.1867 0.220147 15.2547 0.220148L15.2547 0.95667ZM1.629 14.5823C1.629 7.05709 7.72942 0.95667 15.2547 0.95667L15.2547 0.220148C7.32265 0.220148 0.89248 6.65032 0.89248 14.5823L1.629 14.5823ZM1.629 28.5763L1.629 14.5823L0.89248 14.5823L0.892481 28.5763L1.629 28.5763ZM15.2547 28.208L1.26074 28.208L1.26074 28.9445L15.2547 28.9445L15.2547 28.208ZM28.8803 14.5823C28.8803 22.1076 22.7799 28.208 15.2547 28.208L15.2547 28.9445C23.1867 28.9445 29.6169 22.5144 29.6169 14.5823L28.8803 14.5823Z" fill="#5B57CA"/>
</svg>
